X: 0
T: Jefferson
L: 1/4
M: 4/4
Q: 1/4=100
K: F
[V: P1]  G (G/F/) D (F/G/) | B (A/G/) A G | (G/F/) (D/C/) D (F/G/) | B A G2 | G (G/F/) D (F/G/) | B (A/G/) A G | (G/F/) (D/C/) D (F/G/) | B A G2|]
[V: P2]  D C D2 | _E C F D | D (D/C/) (D D) | _E C B, C | D C B, A, | D2 F D | _E (D/C/) B, D | G F D2|]
[V: P3]  B, A, B, A, | G, F, (D/C/) (B,/A,/) | B, A, B, A, | G, F, G, A, | B, A, G, D, | G, B, (D/C/) B, | B, A, F, B, | (_E/D/) C B,2|]
[V: P4]  G,,2 G, F, | _E, F, D, G, | G,,2 G, F, | _E, F, G,2 | z4 | G,,2 D, G,, | _E, F, B,,2 | C, D, G,2|]

